assets/images/svgs/wallet-icon.svg

<svg width="32" height="32" viewBox="0 0 32 32" fill="none" xmlns="http://www.w3.org/2000/svg">
<g clip-path="url(#clip0_4_3155)">
<path d="M30.748 8.81594C31.4382 8.81594 31.9978 8.2564 31.9978 7.56613V6.25382C31.9978 2.80546 29.1923 0 25.7439 0C25.7439 0 6.15256 0.00293706 6.10425 0.00862372C4.45518 0.0662402 2.8711 0.773885 1.72927 1.97033C0.558886 3.19665 -0.0512738 4.79166 0.00615522 6.46985C0.00378057 6.50166 0.00253076 24.4964 0.00253076 24.4964C0.00253076 28.6339 3.36866 32 7.50617 32H25.744C29.1923 32 31.9978 29.1945 31.9978 25.7462V16.2571C31.9978 12.8087 29.1923 10.0033 25.744 10.0033H6.25154C4.2449 10.0033 2.59977 8.43487 2.50622 6.43267C2.45867 5.41457 2.82492 4.44272 3.53744 3.69608C4.26027 2.93869 5.27544 2.50438 6.32253 2.50438C6.35946 2.50438 25.7438 2.49963 25.7438 2.49963C27.8139 2.49963 29.498 4.18375 29.498 6.25382V7.56613C29.4982 8.2564 30.0577 8.81594 30.748 8.81594ZM6.25154 12.5029H25.7439C27.814 12.5029 29.4981 14.187 29.4981 16.2571V25.7462C29.4981 27.8162 27.814 29.5004 25.7439 29.5004H7.50617C4.74695 29.5004 2.50216 27.2556 2.50216 24.4964V11.2581C3.5475 12.0412 4.84637 12.5029 6.25154 12.5029ZM26.9985 21.0016C26.9985 21.8644 26.2991 22.5639 25.4363 22.5639C23.3639 22.4816 23.3645 19.5214 25.4363 19.4394C26.2991 19.4394 26.9985 20.1388 26.9985 21.0016ZM26.9985 6.25382C26.9985 5.56355 26.439 5.00401 25.7487 5.00401H6.2516C4.59335 5.07 4.5946 7.43821 6.2516 7.50364H25.7487C26.4389 7.50364 26.9985 6.94409 26.9985 6.25382Z" fill="url(#paint0_linear_4_3155)"/>
</g>
<defs>
<linearGradient id="paint0_linear_4_3155" x1="16.0001" y1="0" x2="16.0001" y2="32" gradientUnits="userSpaceOnUse">
<stop stop-color="#17E3A6"/>
<stop offset="1" stop-color="#FF669F"/>
</linearGradient>
<clipPath id="clip0_4_3155">
<rect width="32" height="32" fill="white"/>
</clipPath>
</defs>
</svg>

<svg xmlns="http://www.w3.org/2000/svg" width="32" height="32" fill="none" xmlns:v="https://vecta.io/nano"><g clip-path="url(#B)"><path d="M30.748 8.816a1.25 1.25 0 0 0 1.25-1.25V6.254C31.998 2.805 29.192 0 25.744 0L6.104.009A6.38 6.38 0 0 0 1.729 1.97a6.16 6.16 0 0 0-1.723 4.5C.004 6.502.003 24.496.003 24.496.003 28.634 3.369 32 7.506 32h18.238c3.448 0 6.254-2.805 6.254-6.254v-9.489c0-3.448-2.806-6.254-6.254-6.254H6.252c-2.007 0-3.652-1.568-3.745-3.571-.048-1.018.319-1.99 1.031-2.737a3.87 3.87 0 0 1 2.785-1.192L25.744 2.5a3.76 3.76 0 0 1 3.754 3.754v1.312a1.25 1.25 0 0 0 1.25 1.25zM6.252 12.503h19.492a3.76 3.76 0 0 1 3.754 3.754v9.489a3.76 3.76 0 0 1-3.754 3.754H7.506a5.01 5.01 0 0 1-5.004-5.004V11.258a6.23 6.23 0 0 0 3.749 1.245zm20.747 8.499c0 .863-.699 1.562-1.562 1.562-2.072-.082-2.072-3.043 0-3.125.863 0 1.562.699 1.562 1.562zm0-14.748a1.25 1.25 0 0 0-1.25-1.25H6.252c-1.658.066-1.657 2.434 0 2.5h19.497a1.25 1.25 0 0 0 1.25-1.25z" fill="url(#A)"/></g><defs><linearGradient id="A" x1="16" y1="0" x2="16" y2="32" gradientUnits="userSpaceOnUse"><stop stop-color="#17e3a6"/><stop offset="1" stop-color="#ff669f"/></linearGradient><clipPath id="B"><path fill="#fff" d="M0 0h32v32H0z"/></clipPath></defs></svg>
